X: 133
T: 9 La Destr\'ees
T: la Destr\'ees
B: Robert Landrin "Potpourri fran\,cois des contre-danse ancienne tel quil se danse chez la Reine ..." 1760 p.13 #3 dance 04 #9
S: http://memory.loc.gov/cgi-bin/query/D?musdibib:2:./temp/~ammem_EbRS:
Z: 2014 John Chambers <jc:trillian.mit.edu>
M: 2/2
L: 1/8
K: D
% - - - - - - - - - - - - - - - - - - - - - - - - -
!segno!d2g2 |\
!+!f3g a2a2 | d4 e2f2 | g2f2 efge | f2d2 d2a2 |\
!+!f3g a2a2 | d4 e2f2 | g2fe !+!e4 | d4 |]
"2 fois en rondeau"f2e2 |\
f2e2 d2c2 | B4 e2d2 | c2B2 e2d2 | c2B2 e2d2 |\
cBAB c2B2 | A4 ABcd | edef g2f2 | e4 !segno!y|]
% - - - - - - - - - - - - - - - - - - - - - - - - -

%%newpage
%%sep 1 1 500
%%sep 1 1 500
